X: 30182
M: 2/4
L: 1/8
K: Bb
|:\
f3b | a.g.g.g | .g.g.b.g | .g.ff2 |
d3f | feed | dccB | BAGF |\
f3.b | .a.g.g.g | .g.g.b.g | .g.ff2 |\
d3f | ff/g/ ee/f/ | dd/e/ cc/d/ | B4 :|


